packages/radix-icons/outline/15/eye-closed.svg

<svg width="15" height="15" fill="none" xmlns="http://www.w3.org/2000/svg">
  <path
    fill-rule="evenodd"
    clip-rule="evenodd"
    d="M14.7649 6.07595C14.9991 6.22231 15.0703 6.53078 14.9239 6.76495C14.4849 7.46742 13.9632 8.10644 13.3702 8.66304L14.5712 9.86405C14.7664 10.0593 14.7664 10.3759 14.5712 10.5712C14.3759 10.7664 14.0593 10.7664 13.8641 10.5712L12.6011 9.30816C11.8049 9.90282 10.9089 10.3621 9.93374 10.651L10.383 12.3276C10.4544 12.5944 10.2961 12.8685 10.0294 12.94C9.76266 13.0115 9.4885 12.8532 9.41703 12.5864L8.95916 10.8775C8.48742 10.958 8.00035 10.9999 7.5 10.9999C6.99964 10.9999 6.51257 10.958 6.04082 10.8775L5.58299 12.5864C5.51153 12.8532 5.23737 13.0115 4.97063 12.94C4.7039 12.8685 4.5456 12.5944 4.61706 12.3277L5.06624 10.651C4.09111 10.3621 3.19503 9.90281 2.3989 9.30814L1.1359 10.5711C0.940638 10.7664 0.624058 10.7664 0.428797 10.5711C0.233537 10.3759 0.233537 10.0593 0.428797 9.86404L1.62982 8.66302C1.03682 8.10643 0.515113 7.46742 0.0760677 6.76495C-0.0702867 6.53078 0.000898545 6.22231 0.235064 6.07595C0.46923 5.9296 0.777703 6.00078 0.924057 6.23495C1.40354 7.00212 1.989 7.68056 2.66233 8.2427C2.67315 8.25096 2.6837 8.25971 2.69397 8.26897C4.00897 9.35527 5.65536 9.9999 7.5 9.9999C10.3078 9.9999 12.6563 8.50629 14.0759 6.23495C14.2223 6.00078 14.5308 5.9296 14.7649 6.07595Z"
    fill="currentColor"
  />
</svg>

<svg width="15" height="15" fill="none" xmlns="http://www.w3.org/2000/svg">
  <path
    fill-rule="evenodd"
    clip-rule="evenodd"
    d="M14.765 6.076a.5.5 0 01.159.689 9.52 9.52 0 01-1.554 1.898l1.201 1.201a.5.5 0 01-.707.707l-1.263-1.263a8.473 8.473 0 01-2.667 1.343l.449 1.677a.5.5 0 01-.966.258l-.458-1.709a8.666 8.666 0 01-2.918 0l-.458 1.71a.5.5 0 11-.966-.26l.45-1.676a8.473 8.473 0 01-2.668-1.343l-1.263 1.263a.5.5 0 11-.707-.707l1.2-1.201A9.52 9.52 0 01.077 6.765a.5.5 0 01.848-.53 8.426 8.426 0 001.77 2.034A7.462 7.462 0 007.5 9.999c2.808 0 5.156-1.493 6.576-3.764a.5.5 0 01.689-.16z"
    fill="currentColor"
  />
</svg>
